X:010
T:William Taylor's Tabletop Hornpipe
M:4/4
K:Em
E2 E2 EFGE | FGFE D2 B,2 | B2 B2 ABAG | FEDE FGAF |
E2 E2 EFGE | FGFE D2 B,2 | BAGF EGFD | E2 E2 E4 :||
BGEG B2 B2 | AFDF A2 A2 | GFED E2 EG | FEDE F2 F2 |
BGEG B2 B2 | AFDF A2 A2 | GFED EGFD | E2 E2 E4 :||
